lib/brands/icons/adobe-aero.svg

<svg xmlns="http://www.w3.org/2000/svg" fill="none" aria-hidden="true" viewBox="0 0 48 48"><g id="adobe-aero-Icon"><g id="Group"><path id="bg" fill="#013301" d="M6 19.0286C6 14.4681 6 12.1879 6.88752 10.4461C7.6682 8.9139 8.9139 7.6682 10.4461 6.88752C12.1879 6 14.4681 6 19.0286 6H28.9714C33.5319 6 35.8121 6 37.5539 6.88752C39.0861 7.6682 40.3318 8.9139 41.1125 10.4461C42 12.1879 42 14.4681 42 19.0286V28.9714C42 33.5319 42 35.8121 41.1125 37.5539C40.3318 39.0861 39.0861 40.3318 37.5539 41.1125C35.8121 42 33.5319 42 28.9714 42H19.0286C14.4681 42 12.1879 42 10.4461 41.1125C8.9139 40.3318 7.6682 39.0861 6.88752 37.5539C6 35.8121 6 33.5319 6 28.9714V19.0286Z"/><g id="Vector"><path fill="#33FF66" d="M22.4436 28.5821H16.8649L15.7299 32.2053C15.6984 32.3397 15.5747 32.4348 15.4401 32.4282H12.6146C12.4534 32.4282 12.3971 32.3374 12.4455 32.1558L17.2755 17.9477C17.3238 17.7991 17.3721 17.6538 17.4204 17.4637C17.4836 17.1333 17.5159 16.7974 17.517 16.4606C17.5032 16.3611 17.589 16.273 17.6861 16.2872H21.5258C21.6383 16.2872 21.7028 16.3285 21.7191 16.4111L27.2012 32.1805C27.2494 32.3458 27.2011 32.4284 27.0562 32.4282H23.9167C23.8066 32.4407 23.7014 32.3653 23.6752 32.2548L22.4436 28.5821ZM17.7343 25.5271H21.55C20.9231 23.3848 20.2156 21.2707 19.6422 19.1118C18.9924 21.3513 18.3924 23.4282 17.7343 25.5271Z"/><path fill="#33FF66" d="M28.7949 20.1205H31.4273C31.5724 20.1218 31.7028 20.2246 31.7412 20.3682C31.9341 20.8075 31.9579 21.3373 31.9586 21.8116C32.41 21.2725 32.9544 20.8233 33.5645 20.4865C34.2189 20.1067 34.9607 19.9142 35.7125 19.9292C35.8372 19.9108 35.9477 20.0241 35.9299 20.1521V23.1492C35.9299 23.2649 35.8491 23.3225 35.6884 23.3225C34.5742 23.2437 32.8395 23.5137 32.0299 24.4124V32.2053C32.0299 32.3539 31.9655 32.4282 31.8366 32.4282H29.0123C28.8735 32.4486 28.7511 32.3205 28.7707 32.1805V23.7189C28.7707 22.585 28.7947 21.4171 28.6258 20.2939C28.5998 20.1905 28.6963 20.0944 28.7949 20.1205Z"/></g></g></g></svg>

<svg xmlns="http://www.w3.org/2000/svg" fill="none" aria-hidden="true" viewBox="0 0 48 48"><path fill="#013301" d="M6 19.029c0-4.56 0-6.841.888-8.583a8.143 8.143 0 0 1 3.558-3.558C12.188 6 14.468 6 19.03 6h9.942c4.56 0 6.841 0 8.583.888a8.143 8.143 0 0 1 3.558 3.558C42 12.188 42 14.468 42 19.03v9.942c0 4.56 0 6.841-.888 8.583a8.143 8.143 0 0 1-3.558 3.558C35.812 42 33.532 42 28.97 42h-9.94c-4.56 0-6.841 0-8.583-.888a8.143 8.143 0 0 1-3.558-3.558C6 35.812 6 33.532 6 28.97v-9.94Z"/><path fill="#3F6" d="M22.444 28.582h-5.58l-1.134 3.623a.288.288 0 0 1-.29.223h-2.825c-.162 0-.218-.09-.17-.272l4.83-14.208c.049-.149.097-.294.145-.484a5.36 5.36 0 0 0 .097-1.003.153.153 0 0 1 .17-.174h3.839c.112 0 .177.041.193.124l5.482 15.77c.048.165 0 .247-.145.247h-3.14a.226.226 0 0 1-.24-.173l-1.232-3.673Zm-4.71-3.055h3.816c-.627-2.142-1.334-4.256-1.908-6.415-.65 2.24-1.25 4.316-1.908 6.415Zm11.061-5.407h2.632a.333.333 0 0 1 .314.248c.193.44.217.97.218 1.444a5.67 5.67 0 0 1 1.606-1.326 4.113 4.113 0 0 1 2.148-.557c.124-.018.235.095.217.223v2.997c0 .116-.08.174-.242.174-1.114-.08-2.849.19-3.658 1.09v7.792c0 .149-.065.223-.193.223h-2.825c-.139.02-.26-.107-.241-.247v-8.462c0-1.134.024-2.302-.145-3.425-.026-.104.07-.2.169-.174Z"/></svg>
